src/assets/extlogos/telegram.svg

<svg viewBox="0 0 48 48" xmlns="http://www.w3.org/2000/svg"><path d="m0 24c0 13.255 10.745 24 24 24s24-10.745 24-24-10.745-24-24-24-24 10.745-24 24zm19.6 11l0.4083-6.1177-3e-4 -3e-4 11.129-10.043c0.4884-0.4335-0.1066-0.6449-0.755-0.2517l-13.735 8.665-5.9326-1.8516c-1.2812-0.3923-1.2904-1.2727 0.2876-1.9056l23.118-8.9142c1.0559-0.4794 2.075 0.2536 1.6719 1.8696l-3.937 18.553c-0.2749 1.3184-1.0715 1.6337-2.1752 1.0247l-5.9973-4.4309-2.8827 2.8031c-0.0091 0.0088-0.0181 0.0176-0.0271 0.0264-0.3224 0.3139-0.5892 0.5736-1.1729 0.5736z" clip-rule="evenodd" fill="currentColor" fill-rule="evenodd"/></svg>

<svg xmlns="http://www.w3.org/2000/svg" fill="none" viewBox="0 0 48 48"><path fill="currentColor" fill-rule="evenodd" d="M0 24C0 37.2548 10.7452 48 24 48C37.2548 48 48 37.2548 48 24C48 10.7452 37.2548 0 24 0C10.7452 0 0 10.7452 0 24ZM19.6 35L20.0083 28.8823L20.008 28.882L31.1369 18.839C31.6253 18.4055 31.0303 18.1941 30.3819 18.5873L16.6473 27.2523L10.7147 25.4007C9.4335 25.0084 9.4243 24.128 11.0023 23.4951L34.1203 14.5809C35.1762 14.1015 36.1953 14.8345 35.7922 16.4505L31.8552 35.0031C31.5803 36.3215 30.7837 36.6368 29.68 36.0278L23.6827 31.5969L20.8 34.4C20.7909 34.4088 20.7819 34.4176 20.7729 34.4264C20.4505 34.7403 20.1837 35 19.6 35Z" clip-rule="evenodd"/></svg>
